assets/gcpsecurityhealthadvisor/original.svg

<svg height="24" width="24" xmlns="http://www.w3.org/2000/svg" xmlns:xlink="http://www.w3.org/1999/xlink"><filter id="a" filterUnits="userSpaceOnUse" height="28" width="17" x="-9" y="-6"><feColorMatrix values="1 0 0 0 0 0 1 0 0 0 0 0 1 0 0 0 0 0 1 0"/></filter><mask id="b" height="28" maskUnits="userSpaceOnUse" width="17" x="-9" y="-6"><g filter="url(#a)"><path clip-rule="evenodd" d="m3 6h-2v-2.6l-5-2.2v-2.2l7 3zm0 1v.7c0 4.4-3.7 9.3-7 9.3v-2c2 0 5-3.9 5-7.3v-.7z" fill="#fff" fill-rule="evenodd"/></g></mask><filter id="c" filterUnits="userSpaceOnUse" height="28" width="17" x="-6.7" y="-6"><feColorMatrix values="1 0 0 0 0 0 1 0 0 0 0 0 1 0 0 0 0 0 1 0"/></filter><mask id="d" height="28" maskUnits="userSpaceOnUse" width="17" x="-6.7" y="-6"><g filter="url(#c)"><path clip-rule="evenodd" d="m.5 9h-2c-.1-.4-.1-.9-.1-1.3v-5.7l7-3v2.2l-5 2.2v4.4c-.1.3 0 .8.1 1.2m.2 1c.9 2.6 3.1 5 4.6 5v2c-2.7 0-5.7-3.4-6.7-7z" fill="#fff" fill-rule="evenodd"/></g></mask><g clip-rule="evenodd" fill-rule="evenodd"><path d="m-9 22h17v-28h-17z" fill="#aecbfa" mask="url(#b)" transform="translate(16 4)"/><path d="m-6.7 22h17v-28h-17z" fill="#669df6" mask="url(#d)" transform="translate(6.667 4)"/><path d="m7.8 12h-5.8v1h6.3l1.7-2.5 3 6.1 2.3-4.6h6.7v-1h-7.3l-1.7 3.4-2.9-5.9z" fill="#4285f4"/></g><path d="m0 0h24v24h-24z" fill="none"/></svg>

<svg xmlns="http://www.w3.org/2000/svg" xml:space="preserve" width="24" height="24"><g transform="translate(16 4)"><defs><filter id="a" width="17" height="28" x="-9" y="-6" filterUnits="userSpaceOnUse"><feColorMatrix values="1 0 0 0 0 0 1 0 0 0 0 0 1 0 0 0 0 0 1 0"/></filter></defs><mask id="b" width="17" height="28" x="-9" y="-6" maskUnits="userSpaceOnUse"><g filter="url(#a)"><path fill="#fff" fill-rule="evenodd" d="M3 6H1V3.4l-5-2.2V-1l7 3zm0 1v.7C3 12.1-.7 17-4 17v-2c2 0 5-3.9 5-7.3V7z" clip-rule="evenodd"/></g></mask><path fill="#aecbfa" fill-rule="evenodd" d="M-9 22H8V-6H-9z" clip-rule="evenodd" mask="url(#b)"/></g><g transform="translate(6.667 4)"><defs><filter id="c" width="17" height="28" x="-6.7" y="-6" filterUnits="userSpaceOnUse"><feColorMatrix values="1 0 0 0 0 0 1 0 0 0 0 0 1 0 0 0 0 0 1 0"/></filter></defs><mask id="d" width="17" height="28" x="-6.7" y="-6" maskUnits="userSpaceOnUse"><g filter="url(#c)"><path fill="#fff" fill-rule="evenodd" d="M.5 9h-2c-.1-.4-.1-.9-.1-1.3V2l7-3v2.2l-5 2.2v4.4c-.1.3 0 .8.1 1.2m.2 1c.9 2.6 3.1 5 4.6 5v2c-2.7 0-5.7-3.4-6.7-7z" clip-rule="evenodd"/></g></mask><path fill="#669df6" fill-rule="evenodd" d="M-6.7 22h17V-6h-17z" clip-rule="evenodd" mask="url(#d)"/></g><path fill="#4285f4" fill-rule="evenodd" d="M7.8 12H2v1h6.3l1.7-2.5 3 6.1 2.3-4.6H22v-1h-7.3L13 14.4l-2.9-5.9z" clip-rule="evenodd"/><path fill="none" d="M0 0h24v24H0z"/></svg>
